X:1
T:Det Var Naa Eingang
T:Det Var Naa Eingang
T:Nedtegnet med siffernoter av Ole Andersen Mærlie (1873)
L:1/8
Q:1/4=70
M:3/4
K:Eb
V:1 treble nm="Stemme" snm="St."
V:1
 G/ |"Cm" c>=B c2 ed |"Fm" cc"G" =B4 |"Cm" cd cd ed |"D7" c>B"G" G3"Cm" z/ E/ |"Fm" FF"Gm" G>A BG | %6
"Fm" FA"G" G4 |"Cm" EG"G7" F2 DF |"Cm" GF GA"Gm" BG |"Fm" FA"G" G4 |"Cm" E>G"G7" D2"Cm" C3/2 |] %11

